images/user-astronaut.svg

<svg xmlns="http://www.w3.org/2000/svg" viewBox="0 0 448 512"><path d="M64 224h13.5c24.7 56.5 80.9 96 146.5 96s121.8-39.5 146.5-96H384c8.8 0 16-7.2 16-16v-96c0-8.8-7.2-16-16-16h-13.5C345.8 39.5 289.6 0 224 0S102.2 39.5 77.5 96H64c-8.8 0-16 7.2-16 16v96c0 8.8 7.2 16 16 16zm40-88c0-22.1 21.5-40 48-40h144c26.5 0 48 17.9 48 40v24c0 53-43 96-96 96h-48c-53 0-96-43-96-96v-24zm72 72l12-36 36-12-36-12-12-36-12 36-36 12 36 12 12 36zm151.6 113.4C297.7 340.7 262.2 352 224 352s-73.7-11.3-103.6-30.6C52.9 328.5 0 385 0 454.4v9.6c0 26.5 21.5 48 48 48h80v-64c0-17.7 14.3-32 32-32h128c17.7 0 32 14.3 32 32v64h80c26.5 0 48-21.5 48-48v-9.6c0-69.4-52.9-125.9-120.4-133zM272 448c-8.8 0-16 7.2-16 16s7.2 16 16 16 16-7.2 16-16-7.2-16-16-16zm-96 0c-8.8 0-16 7.2-16 16v48h32v-48c0-8.8-7.2-16-16-16z"/></svg>
<!--
Font Awesome Free 5.3.1 by @fontawesome - https://fontawesome.com
License - https://fontawesome.com/license/free (Icons: CC BY 4.0, Fonts: SIL OFL 1.1, Code: MIT License)
-->

<svg id="Layer_1" data-name="Layer 1" xmlns="http://www.w3.org/2000/svg" viewBox="0 0 448 512"><defs><style>.cls-1{fill:#fff;}</style></defs><path class="cls-1" d="M64,224H77.5a159.78,159.78,0,0,0,293,0H384a16,16,0,0,0,16-16V112a16,16,0,0,0-16-16H370.5a159.78,159.78,0,0,0-293,0H64a16,16,0,0,0-16,16v96A16,16,0,0,0,64,224Zm40-88c0-22.1,21.5-40,48-40H296c26.5,0,48,17.9,48,40v24a96,96,0,0,1-96,96H200a96,96,0,0,1-96-96Zm72,72,12-36,36-12-36-12-12-36-12,36-36,12,36,12ZM327.6,321.4a190.68,190.68,0,0,1-207.2,0C52.9,328.5,0,385,0,454.4V464a48,48,0,0,0,48,48h80V448a32,32,0,0,1,32-32H288a32,32,0,0,1,32,32v64h80a48,48,0,0,0,48-48v-9.6C448,385,395.1,328.5,327.6,321.4ZM272,448a16,16,0,1,0,16,16A16,16,0,0,0,272,448Zm-96,0a16,16,0,0,0-16,16v48h32V464A16,16,0,0,0,176,448Z"/></svg>
